X: 13
M:4/4
L:1/8
K:G
ef|gfed edBd|gfed e2 ef|gfed edBA|BGEF G2 ef|
gfed edBA|gfed e2 ef|gbag fagf|edef g2||

